src/assets/images/settings.svg

<svg width="24" height="24" viewBox="0 0 24 24" fill="none" xmlns="http://www.w3.org/2000/svg">
  <path d="M19.14 12.9359C19.176 12.6359 19.2 12.3239 19.2 11.9999C19.2 11.6759 19.176 11.3639 19.128 11.0639L21.156 9.4799C21.336 9.3359 21.384 9.0719 21.276 8.8679L19.356 5.5439C19.236 5.3279 18.984 5.2559 18.768 5.3279L16.38 6.2879C15.876 5.9039 15.348 5.5919 14.76 5.3519L14.4 2.8079C14.364 2.5679 14.16 2.3999 13.92 2.3999H10.08C9.83998 2.3999 9.64799 2.5679 9.61199 2.8079L9.25199 5.3519C8.66398 5.5919 8.12399 5.9159 7.63199 6.2879L5.24398 5.3279C5.02798 5.2439 4.77598 5.3279 4.65598 5.5439L2.73598 8.8679C2.61598 9.0839 2.66398 9.3359 2.85598 9.4799L4.88398 11.0639C4.83598 11.3639 4.79998 11.6879 4.79998 11.9999C4.79998 12.3119 4.82398 12.6359 4.87198 12.9359L2.84398 14.5199C2.66398 14.6639 2.61598 14.9279 2.72398 15.1319L4.64398 18.4559C4.76398 18.6719 5.01598 18.7439 5.23198 18.6719L7.61998 17.7119C8.12398 18.0959 8.65198 18.4079 9.23998 18.6479L9.59999 21.1919C9.64798 21.4319 9.83998 21.5999 10.08 21.5999H13.92C14.16 21.5999 14.364 21.4319 14.388 21.1919L14.748 18.6479C15.336 18.4079 15.876 18.0839 16.368 17.7119L18.756 18.6719C18.972 18.7559 19.224 18.6719 19.344 18.4559L21.264 15.1319C21.384 14.9159 21.336 14.6639 21.144 14.5199L19.14 12.9359ZM12 15.5999C10.02 15.5999 8.39998 13.9799 8.39998 11.9999C8.39998 10.0199 10.02 8.3999 12 8.3999C13.98 8.3999 15.6 10.0199 15.6 11.9999C15.6 13.9799 13.98 15.5999 12 15.5999Z" fill="#0380DA"/>
</svg>

<svg width="24" height="24" fill="none" xmlns="http://www.w3.org/2000/svg"><path d="M19.14 12.936c.036-.3.06-.612.06-.936 0-.324-.024-.636-.072-.936l2.028-1.584a.496.496 0 00.12-.612l-1.92-3.324a.488.488 0 00-.588-.216l-2.388.96a7.03 7.03 0 00-1.62-.936l-.36-2.544a.479.479 0 00-.48-.408h-3.84a.467.467 0 00-.468.408l-.36 2.544a7.218 7.218 0 00-1.62.936l-2.388-.96a.475.475 0 00-.588.216l-1.92 3.324a.465.465 0 00.12.612l2.028 1.584c-.048.3-.084.624-.084.936 0 .312.024.636.072.936L2.844 14.52a.496.496 0 00-.12.612l1.92 3.324c.12.216.372.288.588.216l2.388-.96a7.03 7.03 0 001.62.936l.36 2.544c.048.24.24.408.48.408h3.84c.24 0 .444-.168.468-.408l.36-2.544a7.219 7.219 0 001.62-.936l2.388.96c.216.084.468 0 .588-.216l1.92-3.324a.465.465 0 00-.12-.612l-2.004-1.584zM12 15.6A3.61 3.61 0 018.4 12c0-1.98 1.62-3.6 3.6-3.6s3.6 1.62 3.6 3.6-1.62 3.6-3.6 3.6z" fill="#0380DA"/></svg>
